modules/zondicons/icons/chat-bubble-dots.svg

<?xml version="1.0" encoding="UTF-8" standalone="no"?>
<svg width="20px" height="20px" viewBox="0 0 20 20" version="1.1" xmlns="http://www.w3.org/2000/svg" xmlns:xlink="http://www.w3.org/1999/xlink">
    <!-- Generator: Sketch 3.7.2 (28276) - http://www.bohemiancoding.com/sketch -->
    <title>chat-bubble-dots</title>
    <desc>Created with Sketch.</desc>
    <defs></defs>
    <g id="Page-1" stroke="none" stroke-width="1" fill="none" fill-rule="evenodd">
        <g id="chat-bubble-dots" fill="#000000">
            <path d="M10,15 L18.0092049,15 C19.1017876,15 20,14.1019465 20,12.9941413 L20,3.00585866 C20,1.89706013 19.1086907,1 18.0092049,1 L1.99079514,1 C0.898212381,1 0,1.89805351 0,3.00585866 L0,12.9941413 C0,14.1029399 0.891309342,15 1.99079514,15 L6,15 L6,19 L10,15 Z M5,7 L7,7 L7,9 L5,9 L5,7 Z M9,7 L11,7 L11,9 L9,9 L9,7 Z M13,7 L15,7 L15,9 L13,9 L13,7 Z" id="Combined-Shape"></path>
        </g>
    </g>
</svg>

<svg width="20" height="20" viewBox="0 0 20 20" xmlns="http://www.w3.org/2000/svg"><path d="M10 15h8.01c1.092 0 1.99-.898 1.99-2.006V3.006A1.998 1.998 0 0 0 18.01 1H1.99C.899 1 0 1.898 0 3.006v9.988C0 14.103.891 15 1.99 15H6v4l4-4zM5 7h2v2H5V7zm4 0h2v2H9V7zm4 0h2v2h-2V7z" fill="#000" fill-rule="evenodd"/></svg>
